X: 1
T: Doon, The
M: 4/4
L: 1/8
R: reel
K: Gmaj
~B3d cAAc|BGGB dedc|~B3d cAAc|1 dBcA G2GA:|2 dBcA G2Bc||
dgga gfde|dc (3ABc defd|~g3a gfde|=fddB (3cdc Bc|
dgga gfde|dc (3ABc defa|~g2bg dgbg|~g2bg afdc||
